!!!COM: Stravinsky, Igor (Fyodorovich)
!!!OTL: Symphonie de psaumes (Symphony of Psalms) for Choir and Orchestra
!!!OMV: III: Aleluia. Laudate Dominum (Hallelujah. Praise the Lord)
!!!example: 386
!!!work: Str-30
**kern	**kern	**kern	**kern	**kern	**kern	**kern	**kern	**dynam	**kern	**dynam	**kern	**kern	**kern	**kern	**kern	**kern	**kern	**kern	**kern	**dynam	**kern	**dynam	**kern	**dynam
*part18	*part17	*part16	*part15	*part15	*part14	*part14	*part13	*part13	*part12	*part12	*part11	*part10	*part9	*part8	*part7	*part6	*part5	*part4	*part3	*part3	*part2	*part2	*part1	*part1
*staff20	*staff19	*staff18	*staff17	*staff16	*staff15	*staff14	*staff13	*	*staff12	*	*staff11	*staff10	*staff9	*staff8	*staff7	*staff6	*staff5	*staff4	*staff3	*	*staff2	*	*staff1	*
*I"Violoncello	*I"Violoncello	*I"Violoncello	*I"Piano	*	*I"Harp	*	*I"Baritone	*	*I"Tenor	*	*I"Alto	*I"Soprano	*I"Timpani	*I"Trumpet in C	*I"Trumpet in C	*I"Trumpet in C	*I"Trumpet in C	*I"Trumpet in D	*I"Clarinet in Bb	*	*I"Oboe	*	*I"Oboe	*
*I'Vc.	*I'Vc.	*I'Vc.	*I'Pno.	*	*I'Hp.	*	*I'Bar.	*	*I'T.	*	*I'A.	*I'S.	*I'Timp.	*I'C Tpt.	*I'C Tpt.	*I'C Tpt.	*I'C Tpt.	*I'D Tpt.	*I'Cl.	*	*I'Ob.	*	*I'Ob.	*
*clefF4	*clefC4	*clefF4	*clefF4	*clefF4	*clefF4	*clefF4	*clefF4	*	*clefGv2	*	*clefG2	*clefG2	*clefF4	*clefG2	*clefG2	*clefG2	*clefG2	*clefG2	*clefG2	*	*clefG2	*	*clefG2	*
*k[b-e-a-]	*k[b-e-a-]	*k[b-e-a-]	*k[b-e-a-]	*k[b-e-a-]	*k[b-e-a-]	*k[b-e-a-]	*k[b-e-a-]	*	*k[b-e-a-]	*	*k[b-e-a-]	*k[b-e-a-]	*k[b-e-a-]	*k[b-e-a-]	*k[b-e-a-]	*k[b-e-a-]	*k[b-e-a-]	*	*k[b-e-a-]	*	*k[b-e-a-]	*	*k[b-e-a-]	*
*E-:	*E-:	*E-:	*E-:	*E-:	*E-:	*E-:	*E-:	*	*E-:	*	*E-:	*E-:	*E-:	*E-:	*E-:	*E-:	*E-:	*	*E-:	*	*E-:	*	*E-:	*
*M3/2	*M3/2	*M3/2	*M3/2	*M3/2	*M3/2	*M3/2	*M3/2	*	*M3/2	*	*M3/2	*M3/2	*M3/2	*M3/2	*M3/2	*M3/2	*M3/2	*M3/2	*M3/2	*	*M3/2	*	*M3/2	*
*	*	*	*8ba	*	*8ba	*	*	*	*	*	*	*	*	*	*	*	*	*	*	*	*	*	*	*
=169	=	=	=	=	=	=	=	=	=	=	=	=	=	=	=	=	=	=	=	=	=	=	=	=
1.c	1.a-	1.B-	2FFF	2FF	2FFF	2FF	2B-	.	2c	.	2a-	2ee-	2FF	(2c	1.a-	(1b-	1.cc	1.ee-X	1.r	.	1.r	.	1.r	.
.	.	.	2BBB-	2BB-	2BBB-	2BB-	2BB-	.	2c	.	2a-	2dd	2BB-	2d	.	.	.	.	.	.	.	.	.	.
.	.	.	2EE-	2E-	2EE-	2E-	2B-	.	2c	.	2a-	(4cc	2E-	2e-)	.	2f)	.	.	.	.	.	.	.	.
.	.	.	.	.	.	.	.	.	.	.	.	4dd)	.	.	.	.	.	.	.	.	.	.	.	.
=170	=170	=170	=170	=170	=170	=170	=170	=170	=170	=170	=170	=170	=170	=170	=170	=170	=170	=170	=170	=170	=170	=170	=170	=170
1.c	1.a-	1.B-	2BBB-	2BB-	2BBB-	2BB-	1B-	.	2c	.	(2a-	(2ee-	2BB-	(2c	(2g	(2b-	1.cc	([1ee-X	1.r	.	1.r	.	1.r	.
.	.	.	2FFF	2FF	2FFF	2FF	.	.	2B-	.	2b-)	2dd)	2FF	2d	2a-	2dd	.	.	.	.	.	.	.	.
.	.	.	2BBB-	2BB-	2BBB-	2BB-	2BB-	.	2c	.	2a-	(4cc	2BB-	2e-)	2g)	2b-)	.	4ee-]	.	.	.	.	.	.
.	.	.	.	.	.	.	.	.	.	.	.	4dd)	.	.	.	.	.	4dd)	.	.	.	.	.	.
=171	=171	=171	=171	=171	=171	=171	=171	=171	=171	=171	=171	=171	=171	=171	=171	=171	=171	=171	=171	=171	=171	=171	=171	=171
1.c	1.a-	1.B-	2EE-	2E-	2EE-	2E-	2B-	.	2c	.	2b-	2ee-	2E-	(2c	1.a-	1.b-	(2e-	1.ee-X	1.r	.	1.r	.	1.r	.
.	.	.	2BBB-	2BB-	2BBB-	2BB-	2BB-	.	2c	.	2a-	2dd	2BB-	2d	.	.	2f	.	.	.	.	.	.	.
.	.	.	2FFF	2FF	2FFF	2FF	4B-	.	4c	.	4b-	4cc	2FF	2e-)	.	.	2g)	.	.	.	.	.	.	.
.	.	.	.	.	.	.	4B-	.	4c	.	4b-	4dd	.	.	.	.	.	.	.	.	.	.	.	.
*	*clefF4	*clefC4	*	*	*	*	*	*	*	*	*	*	*	*	*	*	*	*	*	*	*	*	*	*
=172	=172	=172	=172	=172	=172	=172	=172	=172	=172	=172	=172	=172	=172	=172	=172	=172	=172	=172	=172	=172	=172	=172	=172	=172
1.B-	1.c	([1a-	2BBB-	2BB-	2BBB-	2BB-	2BB-	.	2c	.	2a-	2ee-	2BB-	1.d	1.a-	1.b-	1.cc	([1ee-X	1.r	.	1.r	.	1.r	.
.	.	.	2EE-	2E-	2EE-	2E-	2B-	.	2a-	.	2b-	2dd	2E-	.	.	.	.	.	.	.	.	.	.	.
.	.	4a-]	2BBB-	2BB-	2BBB-	2BB-	2B-	.	2g	.	(4a-	(4cc	2BB-	.	.	.	.	4ee-]	.	.	.	.	.	.
.	.	4b-)	.	.	.	.	.	.	.	.	4b-)	4dd-X)	.	.	.	.	.	4dd)	.	.	.	.	.	.
*	*clefC4	*	*	*	*	*	*	*	*	*	*	*	*	*	*	*	*	*	*	*	*	*	*	*
=173	=173	=173	=173	=173	=173	=173	=173	=173	=173	=173	=173	=173	=173	=173	=173	=173	=173	=173	=173	=173	=173	=173	=173	=173
(2A#X	(2f#X	(2cc	2FFF	2FF	2FFF	2FF	2An	.	2f#X	.	2cc	2ddn	2FF	(2c	(2an	(2g-X	(2dd	1.dd	1.r	.	1.r	.	1.r	.
2B-	2.g	2fn	2BBB-	2BB-	2BBB-	2BB-	2B-	.	2fn	.	[2g	2dd-X	2BB-	2d-X	2a-X	2f	2dd-X	.	.	.	.	.	.	.
2c)	.	2e-)	2EE-	2E-	2EE-	2E-	2c	.	2e-	.	4g]	2cc	2E-	2dn)	2an)	2g-)	2cc)	.	.	.	.	.	.	.
.	4an)	.	.	.	.	.	.	.	.	.	4an	.	.	.	.	.	.	.	.	.	.	.	.	.
=174	=174	=174	=174	=174	=174	=174	=174	=174	=174	=174	=174	=174	=174	=174	=174	=174	=174	=174	=174	=174	=174	=174	=174	=174
1.d	1.a-X	1.b-	2BBB-	2BB-	2BBB-	2BB-	1.c	.	1.d	.	1.b-	1.cc	2BB-	1.d	1.a-X	1.b-	1.cc	1.ee-X	1.r	.	1.r	.	1.r	.
.	.	.	2FFF	2FF	2FFF	2FF	.	.	.	.	.	.	2FF	.	.	.	.	.	.	.	.	.	.	.
.	.	.	2BBB-	2BB-	2BBB-	2BB-	.	.	.	.	.	.	2BB-	.	.	.	.	.	.	.	.	.	.	.
=175	=175	=175	=175	=175	=175	=175	=175	=175	=175	=175	=175	=175	=175	=175	=175	=175	=175	=175	=175	=175	=175	=175	=175	=175
*	*	*	*X8ba	*	*X8ba	*	*	*	*	*	*	*	*	*	*	*	*	*	*	*	*	*	*	*
1.r	1.r	1.r	2E-	2E-	2E-	2E-	1.BB-	fp	1.B-	fp	1.r	1.r	2E-	1.r	1.r	1.r	1.r	1.r	1.ee-	p	1.dd-X	p	1.f-X 1.dd-X 1.gg-X	p
.	.	.	2BB-	2BB-	2BB-	2BB-	.	.	.	.	.	.	2BB-	.	.	.	.	.	.	.	.	.	.	.
.	.	.	2FF	2FF	2FF	2FF	.	.	.	.	.	.	2FF	.	.	.	.	.	.	.	.	.	.	.
==	==	==	==	==	==	==	==	==	==	==	==	==	==	==	==	==	==	==	==	==	==	==	==	==
*-	*-	*-	*-	*-	*-	*-	*-	*-	*-	*-	*-	*-	*-	*-	*-	*-	*-	*-	*-	*-	*-	*-	*-	*-
!!!CDT: 1882/06/17-1971/04/06
!!!CBL: Lomonosov (Oranienbaum), Russia
!!!CDL: New York, United States
!!!CNT: Russian, French, American
!!!AGN: Vocal; Choral
!!!MCN: Ansermet, Ernest
!!!MDT: 1930/12/13
!!!MGN: Société Philharmonique de Bruxelles
!!!MLC: Brussels, Belgium
!!!MPD: 1930
!!!MPN:
!!!ODT: 1930
!!!PDT: 1931
!!!excerpt-start-measure: 169
!!!excerpt-end-measure: 175
!!!excerpt-start-time: 7:29
!!!excerpt-end-time: 8:04
!!!EEV: 2020/01/17
!!!system-decoration: [(s1,s2,s3)][(s4,s5,s6,s7,s8)][(s9)][(s10,s11,s12,s13)]{(s14,s15)}{(s16,s17)}[(s18,s19,s20)]
!!!ONB: Converted from MusicXML on 2020/01/17
